X:1
T:O son do ar
C:Bieito Romero Copo
O:Galicia, España
R:jig
Z:Transcrito por Manuel Domínguez López desde fotocopia del original
M:6/8
L:1/8
Q:138
K:D
"Em"G>FG "D"A>GA|"G"B>AG "Em"E>GB|"D"d>ed "A"c>dc|"Bm"c>BA BEF|"Em"G>FG "D"A>GA|"G"B>AG "Em"E>GA|"B"G>FE "D"D>EF|"Em"E3EF:|
|:"Em"E2F "D"D2"D/B"F|"Em"E>FG "D"A>GF|"Em"E2F "D"D2"D/B"F|"Em"FE>"D"D "Ebm"E B/A/G/F/|"Em"E2F "D"D2"D/B"F|"Em"E>FG "D"A>GF|"Em"G>FE "D"F>E"D/B"D|"Em"E4"Em"B/A/G/F/:|
|:"Em"E2F "D"D2"D/B"F|"Em"E>FG "D"A>GF|"Em"E2F "D"D2"D/B"F|"Em"FE>"D"D "Ebm"E B/A/G/F/|"Em"E2F "D"D2"D/B"F|"Em"E>FG "D"A>B=c|"Em"B>AG "Db"F>G"D/B"F|"Em"E6:|
|EFG EFG|BGE BGE|DEF DEF|AFD AFD|EFG EFG|BGE BGE|B=cB AGF|ABA GFE|GAG FED|FGF E3|
|E2F G2A|BGE BGE|D2E F2G|AFE AFE|E2F G2A|BGE BGE|B=cB AGF|ABA GFE|GAG FED|FGF E3|]

